X: 075
T: Gloucester House
B: 204 Favourite Country Dances
N: Published by Straight & Skillern, London ca.1775
F: http://imslp.org/wiki/204_Favourite_Country_Dances_(Various) p.38 #75
Z: 2014 John Chambers <jc:trillian.mit.edu>
N: Despite the 2/4 time signature, this tune is mostly triplets, but not notated as such in the book.
M: 2/4
L: 1/8
K: D
% - - - - - - - - - - - - - - - - - - - - - - - - -
A |\
ded def | gag g>b | agf edc | ded d>A |\
ded def | gag g>b | agf edc | d2 d :|
|: !p!A |\
aba fga | gag efg | fef def | efe A>!f!A |\
ded def | gag g>b | agf edc | d2 D :|
|: !pp!E |\
=FGA AGF | EFG GFE | DEF FED | CDE A,>!f!A |\
ded def | gag g>b | agf edc | d2 D :|
% - - - - - - - - - - - - - - - - - - - - - - - - -
%%begintext align
%% The 1st Cu. foot it hands round 3 with the 2d Wo. .| the same
%% with the 2d Man :| lead down 2 Cu. foot it to your Partner .|.
%% lead up to the top & cast off :|: hands round four at
%% bottom .||. Right & Left at top :||:
%%endtext

%%sep 1 1 500
%%sep 1 1 500
